X: 45
T:Official Branle
M:C|
L:1/4
R:Branle
B:Thoinot Arbeau : Orchesographie, 1589
Z:Steve Mansfield March 2001
K:C
cc d/c/B/A/|G3 G|Ac cB|c2 c2 ::g>f e/f/g/e/|
f>e d/e/f/d/|
e>d c/d/e/c/|d>c B/c/d/B/|
c>B A/B/c/A/|B>A GG|
AccB|c2 c2:|
<end>
<start>
